X:1
T:James Gibb editions
T:Psalm 129 (Becker) - Schütz
%%score [ ( 1 2 ) ( 3 4 ) ]
L:1/8
Q:1/4=98
M:2/2
K:F
V:1 treble nm="Soprano Alto"
V:2 treble 
V:3 bass nm="Tenor Bass"
V:4 bass 
V:1
"^Cornelius Becker\n(1561-1604)""^Psalm 129, SWV 234""^Heinrich Schütz\n(1585-1672)" D4 F2 B2 | %1
w: ~Die Feind ha-|
w: sie ha- ben|
 A2 G2 (FA) G2 | F2 F2 G2 G2 | c2 A2 (B2 A2) | G4 :|[M:2/2] d4 c2 A2 | B2 B2 c2 d2 | B4 d4 | %8
w: ben mich oft * ge-|drängt, sagt Is- ra-|el mit Kla\- *|gen,|Gott- lob, daß|ich bin blie- ben|noch, sie|
w: mich oft sehr * ge-|kränkt, seit mei- nen|jun- gen Ta\- *|gen.||||
 c2 A2 c2 B2 | A2 F2 F4 | D4 G2 A2 | B2 d2 (BG B2) | A8 |] %13
w: ha- ben mich nicht|ü- ber- mocht,|weil Gott mir|bei- ge- stan\- * *|den.|
w: |||||
V:2
 A,4 B,2 D2 | F2 (ED) (C F2) E | F2 C2 E2 E2 | E2 ^F2 (G2 F2) | G4 :|[M:2/2] G4 E2 ^F2 | %6
 G2 D2 =F2 F2 | D4 F4 | F2 F2 G2 G2 | F2 D2 D4 | A,4 C2 C2 | B,2 A,2 (DB, D2) | D8 |] %13
V:3
 F,4 D,2 G,2 | F,2 G,2 (A,C) C2 | C2 A,2 C2 C2 | C2 D2 D4 | D4 :|[M:2/2] B,4 A,2 D2 | %6
 D2 G,2 A,2 B,2 | F,4 B,4 | A,2 C2 _E2 E2 | %9
"^2. Sie taten mir an großen Drang,\nmußt oft mich niederbücken,\nes zogen manche Furche lang\ndie Pflüger auf mein'n Rücken.\nGott ist gerecht , der hat in Eil\ngehauen ab die Strick und Seil\nder losen Ackerleute.\n\n5. Der Segen von Gott, unserm Herrn,\nden die Gerechten erben,\nsei von mein'n Feinden weit und fern,\nFluch sie treff und Verderben!\nKein Mensch soll wünschen nimmermehr\nden bösen Leuten Guts und Ehr\nim Namen unsers Herren." C2 B,2 B,4 | %10
 F,4 E,2 C,2 | G,2 D,4 G,2 | ^F,8 |] %13
V:4
 D,4 B,,2 G,,2 | D,2 E,2 F,2 C,2 | F,2 F,2 C,2 C,2 | A,,2 D,2 (G,,2 D,2) | G,,4 :| %5
[M:2/2] G,4 A,2 D,2 | G,2 G,2 F,2 B,,2 | B,,4 B,,4 | F,2 F,2 C,2 _E,2 | F,2 B,,2 B,,4 | %10
 D,4 C,2 A,,2 | G,,2 ^F,,2 G,,4 | D,8 |] %13

